images/50633693.svg

<?xml version="1.0" encoding="UTF-8"?>
<svg xmlns="http://www.w3.org/2000/svg" xmlns:xlink="http://www.w3.org/1999/xlink" width="300pt" height="300pt" viewBox="0 0 300 300" version="1.1">
<defs>
<g>
<symbol overflow="visible" id="glyph0-0">
<path style="stroke:none;" d="M 0.453125 1.59375 L 0.453125 -6.34375 L 4.953125 -6.34375 L 4.953125 1.59375 Z M 0.953125 1.09375 L 4.453125 1.09375 L 4.453125 -5.84375 L 0.953125 -5.84375 Z M 0.953125 1.09375 "/>
</symbol>
<symbol overflow="visible" id="glyph0-1">
<path style="stroke:none;" d="M 0.890625 -6.5625 L 4.65625 -6.5625 L 4.65625 -5.8125 L 1.765625 -5.8125 L 1.765625 -3.875 L 4.375 -3.875 L 4.375 -3.140625 L 1.765625 -3.140625 L 1.765625 0 L 0.890625 0 Z M 0.890625 -6.5625 "/>
</symbol>
<symbol overflow="visible" id="glyph0-2">
<path style="stroke:none;" d="M 3.546875 -5.953125 C 2.898438 -5.953125 2.382812 -5.710938 2 -5.234375 C 1.625 -4.753906 1.4375 -4.101562 1.4375 -3.28125 C 1.4375 -2.445312 1.625 -1.789062 2 -1.3125 C 2.382812 -0.832031 2.898438 -0.59375 3.546875 -0.59375 C 4.191406 -0.59375 4.703125 -0.832031 5.078125 -1.3125 C 5.453125 -1.789062 5.640625 -2.445312 5.640625 -3.28125 C 5.640625 -4.101562 5.453125 -4.753906 5.078125 -5.234375 C 4.703125 -5.710938 4.191406 -5.953125 3.546875 -5.953125 Z M 3.546875 -6.6875 C 4.460938 -6.6875 5.195312 -6.375 5.75 -5.75 C 6.300781 -5.132812 6.578125 -4.3125 6.578125 -3.28125 C 6.578125 -2.238281 6.300781 -1.410156 5.75 -0.796875 C 5.195312 -0.179688 4.460938 0.125 3.546875 0.125 C 2.617188 0.125 1.878906 -0.179688 1.328125 -0.796875 C 0.773438 -1.410156 0.5 -2.238281 0.5 -3.28125 C 0.5 -4.3125 0.773438 -5.132812 1.328125 -5.75 C 1.878906 -6.375 2.617188 -6.6875 3.546875 -6.6875 Z M 3.546875 -6.6875 "/>
</symbol>
<symbol overflow="visible" id="glyph0-3">
<path style="stroke:none;" d="M 0.890625 -6.5625 L 2.078125 -6.5625 L 4.984375 -1.078125 L 4.984375 -6.5625 L 5.84375 -6.5625 L 5.84375 0 L 4.65625 0 L 1.75 -5.484375 L 1.75 0 L 0.890625 0 Z M 0.890625 -6.5625 "/>
</symbol>
<symbol overflow="visible" id="glyph0-4">
<path style="stroke:none;" d="M 0.890625 -6.5625 L 1.765625 -6.5625 L 1.765625 -3.875 L 5 -3.875 L 5 -6.5625 L 5.890625 -6.5625 L 5.890625 0 L 5 0 L 5 -3.125 L 1.765625 -3.125 L 1.765625 0 L 0.890625 0 Z M 0.890625 -6.5625 "/>
</symbol>
</g>
</defs>
<g id="surface17301">
<rect x="0" y="0" width="300" height="300" style="fill:rgb(100%,100%,100%);fill-opacity:1;stroke:none;"/>
<path style="fill:none;stroke-width:1.2;stroke-linecap:butt;stroke-linejoin:miter;stroke:rgb(20%,80%,80%);stroke-opacity:1;stroke-miterlimit:10;" d="M 44.84375 174.929688 L 48.105469 163.738281 "/>
<path style="fill:none;stroke-width:1.2;stroke-linecap:butt;stroke-linejoin:miter;stroke:rgb(0%,0%,0%);stroke-opacity:1;stroke-miterlimit:10;" d="M 48.105469 163.738281 L 51.367188 152.550781 "/>
<path style=" stroke:none;fill-rule:nonzero;fill:rgb(100%,100%,100%);fill-opacity:1;" d="M 41.84375 169.429688 L 47.84375 169.429688 L 47.84375 180.429688 L 41.84375 180.429688 Z M 41.84375 169.429688 "/>
<g style="fill:rgb(20%,80%,80%);fill-opacity:1;">
  <use xlink:href="#glyph0-1" x="41.84375" y="178.092773"/>
</g>
<path style="fill:none;stroke-width:1.2;stroke-linecap:butt;stroke-linejoin:miter;stroke:rgb(0%,0%,0%);stroke-opacity:1;stroke-miterlimit:10;" d="M 51.367188 152.550781 L 35.25 135.710938 "/>
<path style="fill:none;stroke-width:1.2;stroke-linecap:butt;stroke-linejoin:miter;stroke:rgb(0%,0%,0%);stroke-opacity:1;stroke-miterlimit:10;" d="M 53.71875 147.074219 L 40.824219 133.601562 "/>
<path style="fill:none;stroke-width:1.2;stroke-linecap:butt;stroke-linejoin:miter;stroke:rgb(0%,0%,0%);stroke-opacity:1;stroke-miterlimit:10;" d="M 74.011719 147.011719 L 51.367188 152.550781 "/>
<path style="fill:none;stroke-width:1.2;stroke-linecap:butt;stroke-linejoin:miter;stroke:rgb(0%,0%,0%);stroke-opacity:1;stroke-miterlimit:10;" d="M 35.25 135.710938 L 41.773438 113.332031 "/>
<path style="fill:none;stroke-width:1.2;stroke-linecap:butt;stroke-linejoin:miter;stroke:rgb(0%,0%,0%);stroke-opacity:1;stroke-miterlimit:10;" d="M 41.773438 113.332031 L 64.417969 107.792969 "/>
<path style="fill:none;stroke-width:1.2;stroke-linecap:butt;stroke-linejoin:miter;stroke:rgb(0%,0%,0%);stroke-opacity:1;stroke-miterlimit:10;" d="M 45.339844 118.105469 L 63.457031 113.671875 "/>
<path style="fill:none;stroke-width:1.2;stroke-linecap:butt;stroke-linejoin:miter;stroke:rgb(0%,0%,0%);stroke-opacity:1;stroke-miterlimit:10;" d="M 64.417969 107.792969 L 80.535156 124.632812 "/>
<path style="fill:none;stroke-width:1.2;stroke-linecap:butt;stroke-linejoin:miter;stroke:rgb(0%,0%,0%);stroke-opacity:1;stroke-miterlimit:10;" d="M 80.535156 124.632812 L 74.011719 147.011719 "/>
<path style="fill:none;stroke-width:1.2;stroke-linecap:butt;stroke-linejoin:miter;stroke:rgb(0%,0%,0%);stroke-opacity:1;stroke-miterlimit:10;" d="M 74.617188 125.335938 L 69.398438 143.238281 "/>
<path style="fill:none;stroke-width:1.2;stroke-linecap:butt;stroke-linejoin:miter;stroke:rgb(0%,0%,0%);stroke-opacity:1;stroke-miterlimit:10;" d="M 74.011719 147.011719 L 82.070312 155.429688 "/>
<path style="fill:none;stroke-width:1.2;stroke-linecap:butt;stroke-linejoin:miter;stroke:rgb(100%,0%,0%);stroke-opacity:1;stroke-miterlimit:10;" d="M 82.070312 155.429688 L 90.132812 163.851562 "/>
<path style="fill:none;stroke-width:1.2;stroke-linecap:butt;stroke-linejoin:miter;stroke:rgb(100%,0%,0%);stroke-opacity:1;stroke-miterlimit:10;" d="M 90.132812 163.851562 L 101.453125 161.078125 "/>
<path style="fill:none;stroke-width:1.2;stroke-linecap:butt;stroke-linejoin:miter;stroke:rgb(0%,0%,0%);stroke-opacity:1;stroke-miterlimit:10;" d="M 101.453125 161.078125 L 112.773438 158.308594 "/>
<path style=" stroke:none;fill-rule:nonzero;fill:rgb(100%,100%,100%);fill-opacity:1;" d="M 86.132812 158.351562 L 94.132812 158.351562 L 94.132812 169.351562 L 86.132812 169.351562 Z M 86.132812 158.351562 "/>
<g style="fill:rgb(100%,0%,0%);fill-opacity:1;">
  <use xlink:href="#glyph0-2" x="86.132812" y="167.014648"/>
</g>
<path style="fill:none;stroke-width:1.2;stroke-linecap:butt;stroke-linejoin:miter;stroke:rgb(0%,0%,0%);stroke-opacity:1;stroke-miterlimit:10;" d="M 112.773438 158.308594 L 119.296875 135.929688 "/>
<path style="fill:none;stroke-width:1.2;stroke-linecap:butt;stroke-linejoin:miter;stroke:rgb(0%,0%,0%);stroke-opacity:1;stroke-miterlimit:10;" d="M 118.691406 157.605469 L 123.910156 139.703125 "/>
<path style="fill:none;stroke-width:1.2;stroke-linecap:butt;stroke-linejoin:miter;stroke:rgb(0%,0%,0%);stroke-opacity:1;stroke-miterlimit:10;" d="M 128.894531 175.148438 L 112.773438 158.308594 "/>
<path style="fill:none;stroke-width:1.2;stroke-linecap:butt;stroke-linejoin:miter;stroke:rgb(0%,0%,0%);stroke-opacity:1;stroke-miterlimit:10;" d="M 119.296875 135.929688 L 141.941406 130.390625 "/>
<path style="fill:none;stroke-width:1.2;stroke-linecap:butt;stroke-linejoin:miter;stroke:rgb(0%,0%,0%);stroke-opacity:1;stroke-miterlimit:10;" d="M 141.941406 130.390625 L 158.058594 147.230469 "/>
<path style="fill:none;stroke-width:1.2;stroke-linecap:butt;stroke-linejoin:miter;stroke:rgb(0%,0%,0%);stroke-opacity:1;stroke-miterlimit:10;" d="M 147.515625 128.28125 L 160.410156 141.753906 "/>
<path style="fill:none;stroke-width:1.2;stroke-linecap:butt;stroke-linejoin:miter;stroke:rgb(0%,0%,0%);stroke-opacity:1;stroke-miterlimit:10;" d="M 148.464844 108.011719 L 141.941406 130.390625 "/>
<path style="fill:none;stroke-width:1.2;stroke-linecap:butt;stroke-linejoin:miter;stroke:rgb(0%,0%,0%);stroke-opacity:1;stroke-miterlimit:10;" d="M 158.058594 147.230469 L 169.382812 144.460938 "/>
<path style="fill:none;stroke-width:1.2;stroke-linecap:butt;stroke-linejoin:miter;stroke:rgb(0%,0%,100%);stroke-opacity:1;stroke-miterlimit:10;" d="M 169.382812 144.460938 L 180.703125 141.691406 "/>
<path style="fill:none;stroke-width:1.2;stroke-linecap:butt;stroke-linejoin:miter;stroke:rgb(0%,0%,0%);stroke-opacity:1;stroke-miterlimit:10;" d="M 158.058594 147.230469 L 154.796875 158.417969 "/>
<path style="fill:none;stroke-width:1.2;stroke-linecap:butt;stroke-linejoin:miter;stroke:rgb(0%,0%,100%);stroke-opacity:1;stroke-miterlimit:10;" d="M 154.796875 158.417969 L 151.535156 169.609375 "/>
<path style="fill:none;stroke-width:1.2;stroke-linecap:butt;stroke-linejoin:miter;stroke:rgb(0%,0%,100%);stroke-opacity:1;stroke-miterlimit:10;" d="M 180.703125 141.691406 L 183.964844 130.5 "/>
<path style="fill:none;stroke-width:1.2;stroke-linecap:butt;stroke-linejoin:miter;stroke:rgb(0%,0%,0%);stroke-opacity:1;stroke-miterlimit:10;" d="M 183.964844 130.5 L 187.226562 119.3125 "/>
<path style="fill:none;stroke-width:1.2;stroke-linecap:butt;stroke-linejoin:miter;stroke:rgb(0%,0%,100%);stroke-opacity:1;stroke-miterlimit:10;" d="M 176.089844 137.917969 L 178.699219 128.964844 "/>
<path style="fill:none;stroke-width:1.2;stroke-linecap:butt;stroke-linejoin:miter;stroke:rgb(0%,0%,0%);stroke-opacity:1;stroke-miterlimit:10;" d="M 178.699219 128.964844 L 181.308594 120.015625 "/>
<path style=" stroke:none;fill-rule:nonzero;fill:rgb(100%,100%,100%);fill-opacity:1;" d="M 177.703125 136.191406 L 184.703125 136.191406 L 184.703125 147.191406 L 177.703125 147.191406 Z M 177.703125 136.191406 "/>
<g style="fill:rgb(0%,0%,100%);fill-opacity:1;">
  <use xlink:href="#glyph0-3" x="177.703125" y="144.854492"/>
</g>
<path style="fill:none;stroke-width:1.2;stroke-linecap:butt;stroke-linejoin:miter;stroke:rgb(0%,0%,0%);stroke-opacity:1;stroke-miterlimit:10;" d="M 187.226562 119.3125 L 179.167969 110.890625 "/>
<path style="fill:none;stroke-width:1.2;stroke-linecap:butt;stroke-linejoin:miter;stroke:rgb(0%,0%,100%);stroke-opacity:1;stroke-miterlimit:10;" d="M 179.167969 110.890625 L 171.105469 102.472656 "/>
<path style="fill:none;stroke-width:1.2;stroke-linecap:butt;stroke-linejoin:miter;stroke:rgb(0%,0%,0%);stroke-opacity:1;stroke-miterlimit:10;" d="M 187.226562 119.3125 L 198.546875 116.539062 "/>
<path style="fill:none;stroke-width:1.2;stroke-linecap:butt;stroke-linejoin:miter;stroke:rgb(0%,0%,100%);stroke-opacity:1;stroke-miterlimit:10;" d="M 198.546875 116.539062 L 209.867188 113.769531 "/>
<path style="fill:none;stroke-width:1.2;stroke-linecap:butt;stroke-linejoin:miter;stroke:rgb(0%,0%,100%);stroke-opacity:1;stroke-miterlimit:10;" d="M 171.105469 102.472656 L 159.785156 105.242188 "/>
<path style="fill:none;stroke-width:1.2;stroke-linecap:butt;stroke-linejoin:miter;stroke:rgb(0%,0%,0%);stroke-opacity:1;stroke-miterlimit:10;" d="M 159.785156 105.242188 L 148.464844 108.011719 "/>
<path style="fill:none;stroke-width:1.2;stroke-linecap:butt;stroke-linejoin:miter;stroke:rgb(0%,0%,100%);stroke-opacity:1;stroke-miterlimit:10;" d="M 170.144531 108.351562 L 161.089844 110.570312 "/>
<path style="fill:none;stroke-width:1.2;stroke-linecap:butt;stroke-linejoin:miter;stroke:rgb(0%,0%,0%);stroke-opacity:1;stroke-miterlimit:10;" d="M 161.089844 110.570312 L 152.03125 112.785156 "/>
<path style=" stroke:none;fill-rule:nonzero;fill:rgb(100%,100%,100%);fill-opacity:1;" d="M 168.105469 96.972656 L 175.105469 96.972656 L 175.105469 107.972656 L 168.105469 107.972656 Z M 168.105469 96.972656 "/>
<g style="fill:rgb(0%,0%,100%);fill-opacity:1;">
  <use xlink:href="#glyph0-3" x="168.105469" y="105.635742"/>
</g>
<path style="fill:none;stroke-width:1.2;stroke-linecap:butt;stroke-linejoin:miter;stroke:rgb(0%,0%,100%);stroke-opacity:1;stroke-miterlimit:10;" d="M 209.867188 113.769531 L 217.929688 122.191406 "/>
<path style="fill:none;stroke-width:1.2;stroke-linecap:butt;stroke-linejoin:miter;stroke:rgb(0%,0%,0%);stroke-opacity:1;stroke-miterlimit:10;" d="M 217.929688 122.191406 L 225.988281 130.609375 "/>
<path style=" stroke:none;fill-rule:nonzero;fill:rgb(100%,100%,100%);fill-opacity:1;" d="M 202.867188 108.269531 L 216.867188 108.269531 L 216.867188 119.269531 L 202.867188 119.269531 Z M 202.867188 108.269531 "/>
<g style="fill:rgb(0%,0%,100%);fill-opacity:1;">
  <use xlink:href="#glyph0-3" x="202.867188" y="116.932617"/>
  <use xlink:href="#glyph0-4" x="209.844727" y="116.932617"/>
</g>
<path style="fill:none;stroke-width:1.2;stroke-linecap:butt;stroke-linejoin:miter;stroke:rgb(0%,0%,0%);stroke-opacity:1;stroke-miterlimit:10;" d="M 225.988281 130.609375 L 219.464844 152.988281 "/>
<path style="fill:none;stroke-width:1.2;stroke-linecap:butt;stroke-linejoin:miter;stroke:rgb(0%,0%,0%);stroke-opacity:1;stroke-miterlimit:10;" d="M 248.632812 125.070312 L 225.988281 130.609375 "/>
<path style="fill:none;stroke-width:1.2;stroke-linecap:butt;stroke-linejoin:miter;stroke:rgb(0%,0%,0%);stroke-opacity:1;stroke-miterlimit:10;" d="M 219.464844 152.988281 L 235.582031 169.828125 "/>
<path style="fill:none;stroke-width:1.2;stroke-linecap:butt;stroke-linejoin:miter;stroke:rgb(0%,0%,0%);stroke-opacity:1;stroke-miterlimit:10;" d="M 235.582031 169.828125 L 246.90625 167.058594 "/>
<path style="fill:none;stroke-width:1.2;stroke-linecap:butt;stroke-linejoin:miter;stroke:rgb(100%,0%,0%);stroke-opacity:1;stroke-miterlimit:10;" d="M 246.90625 167.058594 L 258.226562 164.289062 "/>
<path style="fill:none;stroke-width:1.2;stroke-linecap:butt;stroke-linejoin:miter;stroke:rgb(100%,0%,0%);stroke-opacity:1;stroke-miterlimit:10;" d="M 258.226562 164.289062 L 261.488281 153.097656 "/>
<path style="fill:none;stroke-width:1.2;stroke-linecap:butt;stroke-linejoin:miter;stroke:rgb(0%,0%,0%);stroke-opacity:1;stroke-miterlimit:10;" d="M 261.488281 153.097656 L 264.75 141.910156 "/>
<path style=" stroke:none;fill-rule:nonzero;fill:rgb(100%,100%,100%);fill-opacity:1;" d="M 254.226562 158.789062 L 262.226562 158.789062 L 262.226562 169.789062 L 254.226562 169.789062 Z M 254.226562 158.789062 "/>
<g style="fill:rgb(100%,0%,0%);fill-opacity:1;">
  <use xlink:href="#glyph0-2" x="254.226562" y="167.452148"/>
</g>
<path style="fill:none;stroke-width:1.2;stroke-linecap:butt;stroke-linejoin:miter;stroke:rgb(0%,0%,0%);stroke-opacity:1;stroke-miterlimit:10;" d="M 264.75 141.910156 L 248.632812 125.070312 "/>
<path style="fill:none;stroke-width:1.2;stroke-linecap:butt;stroke-linejoin:miter;stroke:rgb(0%,0%,100%);stroke-opacity:1;stroke-miterlimit:10;" d="M 151.535156 169.609375 L 159.59375 178.027344 "/>
<path style="fill:none;stroke-width:1.2;stroke-linecap:butt;stroke-linejoin:miter;stroke:rgb(0%,0%,0%);stroke-opacity:1;stroke-miterlimit:10;" d="M 159.59375 178.027344 L 167.65625 186.449219 "/>
<path style="fill:none;stroke-width:1.2;stroke-linecap:butt;stroke-linejoin:miter;stroke:rgb(0%,0%,100%);stroke-opacity:1;stroke-miterlimit:10;" d="M 151.535156 169.609375 L 140.214844 172.378906 "/>
<path style="fill:none;stroke-width:1.2;stroke-linecap:butt;stroke-linejoin:miter;stroke:rgb(0%,0%,0%);stroke-opacity:1;stroke-miterlimit:10;" d="M 140.214844 172.378906 L 128.894531 175.148438 "/>
<path style=" stroke:none;fill-rule:nonzero;fill:rgb(100%,100%,100%);fill-opacity:1;" d="M 148.535156 164.109375 L 155.535156 164.109375 L 155.535156 175.109375 L 148.535156 175.109375 Z M 148.535156 164.109375 "/>
<g style="fill:rgb(0%,0%,100%);fill-opacity:1;">
  <use xlink:href="#glyph0-3" x="148.535156" y="172.772461"/>
</g>
<path style="fill:none;stroke-width:1.2;stroke-linecap:butt;stroke-linejoin:miter;stroke:rgb(0%,0%,0%);stroke-opacity:1;stroke-miterlimit:10;" d="M 126.261719 174.382812 L 123 185.570312 "/>
<path style="fill:none;stroke-width:1.2;stroke-linecap:butt;stroke-linejoin:miter;stroke:rgb(100%,0%,0%);stroke-opacity:1;stroke-miterlimit:10;" d="M 123 185.570312 L 119.738281 196.761719 "/>
<path style="fill:none;stroke-width:1.2;stroke-linecap:butt;stroke-linejoin:miter;stroke:rgb(0%,0%,0%);stroke-opacity:1;stroke-miterlimit:10;" d="M 131.527344 175.917969 L 128.265625 187.105469 "/>
<path style="fill:none;stroke-width:1.2;stroke-linecap:butt;stroke-linejoin:miter;stroke:rgb(100%,0%,0%);stroke-opacity:1;stroke-miterlimit:10;" d="M 128.265625 187.105469 L 125.003906 198.296875 "/>
<path style=" stroke:none;fill-rule:nonzero;fill:rgb(100%,100%,100%);fill-opacity:1;" d="M 118.371094 192.027344 L 126.371094 192.027344 L 126.371094 203.027344 L 118.371094 203.027344 Z M 118.371094 192.027344 "/>
<g style="fill:rgb(100%,0%,0%);fill-opacity:1;">
  <use xlink:href="#glyph0-2" x="118.371094" y="200.69043"/>
</g>
</g>
</svg>

<svg xmlns="http://www.w3.org/2000/svg" xmlns:xlink="http://www.w3.org/1999/xlink" width="300pt" height="300pt" viewBox="0 0 300 300"><defs><symbol overflow="visible"><path d="M.453 1.594v-7.938h4.5v7.938zm.5-.5h3.5v-6.938h-3.5zm0 0"/></symbol><symbol overflow="visible" id="a"><path d="M.89-6.563h3.766v.75h-2.89v1.938h2.61v.734h-2.61V0H.89zm0 0"/></symbol><symbol overflow="visible" id="b"><path d="M3.547-5.953c-.65 0-1.164.242-1.547.72-.375.48-.563 1.13-.563 1.952 0 .835.188 1.49.563 1.967.383.48.898.72 1.547.72.644 0 1.156-.24 1.53-.72.376-.476.564-1.132.564-1.968 0-.822-.187-1.474-.562-1.954-.375-.477-.887-.72-1.53-.72zm0-.734c.914 0 1.648.312 2.203.937.55.617.828 1.438.828 2.47 0 1.042-.277 1.87-.828 2.483-.555.617-1.29.922-2.203.922-.93 0-1.668-.305-2.22-.922C.774-1.41.5-2.237.5-3.28c0-1.033.273-1.853.828-2.47.55-.625 1.29-.938 2.22-.938zm0 0"/></symbol><symbol overflow="visible" id="c"><path d="M.89-6.563H2.08l2.906 5.485v-5.484h.86V0H4.656L1.75-5.484V0H.89zm0 0"/></symbol><symbol overflow="visible" id="d"><path d="M.89-6.563h.876v2.688H5v-2.688h.89V0H5v-3.125H1.766V0H.89zm0 0"/></symbol></defs><g><path fill="#fff" d="M0 0h300v300H0z"/><path d="M44.844 174.93l3.26-11.192" stroke-width="1.2" stroke="#3cc" stroke-miterlimit="10" fill="none"/><path d="M48.105 163.738l3.262-11.187" stroke-width="1.2" stroke="#000" stroke-miterlimit="10" fill="none"/><path d="M41.844 169.43h6v11h-6zm0 0" fill="#fff"/><use xlink:href="#a" x="41.844" y="178.093" fill="#3cc"/><path d="M51.367 152.55L35.25 135.71M53.72 147.074l-12.896-13.472M74.012 147.012l-22.645 5.54M35.25 135.71l6.523-22.378M41.773 113.332l22.645-5.54M45.34 118.105l18.117-4.433M64.418 107.793l16.117 16.84M80.535 124.633l-6.523 22.38M74.617 125.336l-5.22 17.902M74.012 147.012l8.058 8.418" stroke-width="1.2" stroke="#000" stroke-miterlimit="10" fill="none"/><path d="M82.07 155.43l8.063 8.422M90.133 163.852l11.32-2.774" stroke-width="1.2" stroke="#f00" stroke-miterlimit="10" fill="none"/><path d="M101.453 161.078l11.32-2.77" stroke-width="1.2" stroke="#000" stroke-miterlimit="10" fill="none"/><path d="M86.133 158.352h8v11h-8zm0 0" fill="#fff"/><use xlink:href="#b" x="86.133" y="167.015" fill="#f00"/><path d="M112.773 158.31l6.524-22.38M118.69 157.605l5.22-17.902M128.895 175.148l-16.122-16.84M119.297 135.93l22.644-5.54M141.94 130.39l16.12 16.84M147.516 128.28l12.894 13.474M148.465 108.012l-6.524 22.38M158.06 147.23l11.323-2.77" stroke-width="1.2" stroke="#000" stroke-miterlimit="10" fill="none"/><path d="M169.383 144.46l11.32-2.77" stroke-width="1.2" stroke="#00f" stroke-miterlimit="10" fill="none"/><path d="M158.06 147.23l-3.263 11.188" stroke-width="1.2" stroke="#000" stroke-miterlimit="10" fill="none"/><path d="M154.797 158.418l-3.262 11.19M180.703 141.69l3.262-11.19" stroke-width="1.2" stroke="#00f" stroke-miterlimit="10" fill="none"/><path d="M183.965 130.5l3.262-11.188" stroke-width="1.2" stroke="#000" stroke-miterlimit="10" fill="none"/><path d="M176.09 137.918l2.61-8.953" stroke-width="1.2" stroke="#00f" stroke-miterlimit="10" fill="none"/><path d="M178.7 128.965l2.61-8.95" stroke-width="1.2" stroke="#000" stroke-miterlimit="10" fill="none"/><path d="M177.703 136.19h7v11h-7zm0 0" fill="#fff"/><use xlink:href="#c" x="177.703" y="144.854" fill="#00f"/><path d="M187.227 119.313l-8.06-8.422" stroke-width="1.2" stroke="#000" stroke-miterlimit="10" fill="none"/><path d="M179.168 110.89l-8.063-8.417" stroke-width="1.2" stroke="#00f" stroke-miterlimit="10" fill="none"/><path d="M187.227 119.313l11.32-2.774" stroke-width="1.2" stroke="#000" stroke-miterlimit="10" fill="none"/><path d="M198.547 116.54l11.32-2.77M171.105 102.473l-11.32 2.77" stroke-width="1.2" stroke="#00f" stroke-miterlimit="10" fill="none"/><path d="M159.785 105.242l-11.32 2.77" stroke-width="1.2" stroke="#000" stroke-miterlimit="10" fill="none"/><path d="M170.145 108.352l-9.055 2.218" stroke-width="1.2" stroke="#00f" stroke-miterlimit="10" fill="none"/><path d="M161.09 110.57l-9.06 2.215" stroke-width="1.2" stroke="#000" stroke-miterlimit="10" fill="none"/><path d="M168.105 96.973h7v11h-7zm0 0" fill="#fff"/><use xlink:href="#c" x="168.105" y="105.636" fill="#00f"/><path d="M209.867 113.77l8.063 8.42" stroke-width="1.2" stroke="#00f" stroke-miterlimit="10" fill="none"/><path d="M217.93 122.19l8.058 8.42" stroke-width="1.2" stroke="#000" stroke-miterlimit="10" fill="none"/><path d="M202.867 108.27h14v11h-14zm0 0" fill="#fff"/><g fill="#00f"><use xlink:href="#c" x="202.867" y="116.933"/><use xlink:href="#d" x="209.845" y="116.933"/></g><path d="M225.988 130.61l-6.523 22.378M248.633 125.07l-22.645 5.54M219.465 152.988l16.117 16.84M235.582 169.828l11.324-2.77" stroke-width="1.2" stroke="#000" stroke-miterlimit="10" fill="none"/><path d="M246.906 167.06l11.32-2.77M258.227 164.29l3.26-11.192" stroke-width="1.2" stroke="#f00" stroke-miterlimit="10" fill="none"/><path d="M261.488 153.098l3.262-11.188" stroke-width="1.2" stroke="#000" stroke-miterlimit="10" fill="none"/><path d="M254.227 158.79h8v11h-8zm0 0" fill="#fff"/><use xlink:href="#b" x="254.227" y="167.452" fill="#f00"/><path d="M264.75 141.91l-16.117-16.84" stroke-width="1.2" stroke="#000" stroke-miterlimit="10" fill="none"/><path d="M151.535 169.61l8.06 8.417" stroke-width="1.2" stroke="#00f" stroke-miterlimit="10" fill="none"/><path d="M159.594 178.027l8.062 8.422" stroke-width="1.2" stroke="#000" stroke-miterlimit="10" fill="none"/><path d="M151.535 169.61l-11.32 2.77" stroke-width="1.2" stroke="#00f" stroke-miterlimit="10" fill="none"/><path d="M140.215 172.38l-11.32 2.768" stroke-width="1.2" stroke="#000" stroke-miterlimit="10" fill="none"/><path d="M148.535 164.11h7v11h-7zm0 0" fill="#fff"/><use xlink:href="#c" x="148.535" y="172.772" fill="#00f"/><path d="M126.262 174.383L123 185.57" stroke-width="1.2" stroke="#000" stroke-miterlimit="10" fill="none"/><path d="M123 185.57l-3.262 11.192" stroke-width="1.2" stroke="#f00" stroke-miterlimit="10" fill="none"/><path d="M131.527 175.918l-3.26 11.187" stroke-width="1.2" stroke="#000" stroke-miterlimit="10" fill="none"/><path d="M128.266 187.105l-3.262 11.192" stroke-width="1.2" stroke="#f00" stroke-miterlimit="10" fill="none"/><path d="M118.37 192.027h8v11h-8zm0 0" fill="#fff"/><use xlink:href="#b" x="118.371" y="200.69" fill="#f00"/></g></svg>
